svgs/regular/landmark-dome.svg

<svg xmlns="http://www.w3.org/2000/svg" viewBox="0 0 512 512"><!--! Font Awesome Pro 6.3.0 by @fontawesome - https://fontawesome.com License - https://fontawesome.com/license (Commercial License) Copyright 2023 Fonticons, Inc. --><path d="M256 0c13.3 0 24 10.7 24 24v9.5C369.5 44.6 439.9 117.4 447.3 208H456c13.3 0 24 10.7 24 24s-10.7 24-24 24h-8H400 112 64 56c-13.3 0-24-10.7-24-24s10.7-24 24-24h8.7C72.1 117.4 142.5 44.6 232 33.5V24c0-13.3 10.7-24 24-24zM112.9 208H399.1c-8-72-69-128-143.1-128s-135.2 56-143.1 128zm-.9 80v96h64V288h48v96h64V288h48v96h64V288h48v96h8c13.3 0 24 10.7 24 24s-10.7 24-24 24H64c-13.3 0-24-10.7-24-24s10.7-24 24-24V288h48zM8 488c0-13.3 10.7-24 24-24H488c13.3 0 24 10.7 24 24s-10.7 24-24 24H32c-13.3 0-24-10.7-24-24z"/></svg>

<svg xmlns="http://www.w3.org/2000/svg" viewBox="0 0 512 512"><!--! Font Awesome Pro 6.2.0 by @fontawesome - https://fontawesome.com License - https://fontawesome.com/license (Commercial License) Copyright 2022 Fonticons, Inc. --><path d="M256 0C269.3 0 280 10.75 280 24V33.49C369.5 44.65 439.9 117.4 447.3 208H456C469.3 208 480 218.7 480 232C480 245.3 469.3 256 456 256H56C42.75 256 32 245.3 32 232C32 218.7 42.75 208 56 208H64.66C72.13 117.4 142.5 44.65 232 33.49V24C232 10.75 242.7 0 256 0V0zM112.9 208H399.1C391.2 136 330.1 80 255.1 80C181.9 80 120.8 136 112.9 208H112.9zM112 384H176V288H224V384H288V288H336V384H400V288H448V384H456C469.3 384 480 394.7 480 408C480 421.3 469.3 432 456 432H64C50.75 432 40 421.3 40 408C40 394.7 50.75 384 64 384V288H112V384zM8 488C8 474.7 18.75 464 32 464H488C501.3 464 512 474.7 512 488C512 501.3 501.3 512 488 512H32C18.75 512 8 501.3 8 488z"/></svg>
